X: 1
T: My Laddie Sits Ower Late Up
C: Trad
R: Slip Jig
L: 1/8
M: 9/8
K: G
Z: ABC transcription by Verge Roller
r: 16
|: e | "G" dBG BdB G2 e | "G" dBG BdB "D" A2 e | "G" dBG BdB GAB | "C" c>d/e/f/ "G" gdB "D" A2 :|
|: g | "D" fef "G" gdB G2 g | "D" fef "G" gdB "D" A2 g | "D" fef "G" gdB GAB | "C" c>d/e/f/ "G" gdB "D" A2 :|
